X:76
T:Snowflake Breakdown
C:Wally Traugott
S:Bernie Waugh
R:Reel
M:4/4
L:1/8
K:D
|:(3ABc|\
"D"d2fa fedf|"G"edBA "D"dBAF|"A"A,2CE A2AB|cBAc ~BABc|
"D"d2fa fedf|"G"edBA "D"dBAF|"A"Acef (3gfe cA|"D"d2[df][df]d2:|
|:(3ABc|\
"D"d2fd efdf|"A"a^g=gf edcA|"Bb"_B2Bd =fBdf|"(Gm)"_bg=fb gfdc|
"D"d2fd efdf|"F#m"a^g=gf "G"edcB|"A"Acef (3gfe cA|"D"d2[df][df]d2:|

